X: 795
T: Gel Hüseynî`de Aşîrân`ı...
C: Ahmet Avni Konuk
O: Turkey
F: http://compmusic.upf.edu/node/140
N: huseyniasiran--kupe--aksaksemai--gel--ahmet_avni_konuk
N: makam= huseyniasiran
N: form= kupe
N: usul= aksaksemai = 10/8
M: 10/8
L: 1/16
K: C _1/4B ^f  
Q: 1/4=102
%%MIDI tuningsystem comma53
d4 e2e=f ede3/2d/ cde4z2  | c4 d2dc {d}c_2/4BBA BcA4z2  | 
w:  Gel  Hü sey *  *  *  *  *  *  *  nî  |  de  A şî *  *  *  *  *  *  *  *  râ  | 
A4 g2^3/4f2 g2f2 e2ag fed2  | d_2/4ba2 g2g3^3/4ffe fge4z2  | 
w:  nı  te ren *  *  *  nüm   |  et  *  *  bi ze    | 
d3e e2e2 g2=f2 e2e2 d2c2  | _2/4B4 A2AG G^3/4FFE FEE4z2  | 
w:  Ehl_ *  i  mec *  *  *  lis   |  ey le sin  *  *  *  *  *  *  *  bir  | 
E=FE2 ^3/4F2G2 A2G2 A2AG F^3/4ED2  | \
w:  çok  *  *  te şek *  *  *  kür  | 
D=BA2 G2G2 G^3/4FFE FEE4z2  | 
w:  ler  *  *  si ze    | 
|


